**kern
*staff1
*head1[head1a]
*head1[head1b]
*head1[head1aa]
*solo1[solo1a]
*solo1[solo1b]
*solo1[solo1aa]
=1-
*clefG2
*k[]
*C:
*M4/4
1r
=2
1r
=3
1r
=4
1r
=5
1r
=6
1r
=7
1r
=8
1r
=9
8r
*>head1a
{4.cc\
4g/
4a/
=10
4.b-\
[8a-/
8a-/L]
8e-/
8f/
[8g/J
=11
2g/]
4.g/
[8e/
=12
4.e/]
8e/
8f/L
8e/
8f/
8g/J
=13
8e/L
8c/J
8r
[8c/
2c/]
=14
4r
8r
8d/
8r
8e/L
8f/
[8g/J
=15
4.g/]
[8a/
8a/L]
8e/
8f/
[8g/J
=16
2.g/]}
4r
=17
4r
8r
8c/
8e/L
8c/
8e/
[8c/J
=18:|!
1c]
=19
2r
4r
*>head1b
{24g/LL
24a/
24g/JJ
8g-/
=20
4.e/
8f#/
8g/
4e/
8a/
=21||
8r
8a/
2.a/
=22
8g/L
8a/
8g/
8f#/J
8e/L
8B/
8c/
[8c#/J
=23
2c#/]}
4r
8r
{8B-/
=24
4.A/
8a/
8r
8e/L
8f/
8g/J
=25
8r
4.g/
8f/L
8e/
8d/
8c#/J
=26
8e/L
8A/J
8r
[8e/
4.e/]
8A/
=27
8d/L
8e/
8f/
8g/J}
2r
=28
8r
*>head2a
{4.cc\
4g/
4a/
=29||
4.b-\
[8a-/
8a-/L]
8e-/
8f/
[8g/J
=30
2g/]
4.g/
[8e/
=31
4e/]
8e/L
8f/J
8r
8e-/L
8en/
8a/J
=32
8r
[8a/
2.a/]
=33
8r
8A/
12B/L
12c/
12d/J
4e/
8G/L
[8c/J
=34
2.c/]}
4r
=35
4r
8r
*>solo1a
{16e-/LL
16en/JJ
8f/L
8b-/J
24a-/LL
24b-/
24a-/JJ
8f#/
=36
8g/L
8e/J
4r
8r
16dd\LL
16dd-\J
8cc\
8g\J
=37||
8b-\L
16cc\L
16b-\J
8a\
[8a-\J
8a-/L]
8f/
8e-/
8c/J
=38
24g/LL
24a/
24g/JJ
8f/L
8e/
8A/J
8B-/L
8d/
8f/
8g/J
=39
8e/L
8d/J
12c#/L
12e/
12g/J
8b-\L
16cc\L
16b-\J
8a\
8g\J
=40
8f#/L
8d/J
24c/LL
24d/
24c/JJ
8A/
2e/}
=41
2r
2r
=42
{4g/
8e/L
8f/J
8g/L
8cc/
8b/
8a/J
=43
8g/L
8f/
8d/
8A/J
4e/
8g/L
[8d/J
=44
4d/]}
4r
4r
8r
{8a/
=45||
8b-/L
8a/
8a-/
8f/J
8e-/L
8c/
8g/
8f/J
=46
8e/L
8B-/J
8r
8d/
8f/L
8g/
8e/
8d/J
=47
8c#/L
8e/
8B-/
8A-/J
8An/L
8f/
8e/
8cn/J
=48
8d/L
8B/
8c/
[8d/J
8d/L]
8B/
8c/
8d/J
=49
8B/L
[8A/J
4A/]
4r
8.r
16G/
=50
8c/L
[8G/J
4G/]}
2r
=51
2r
2r
=52
4r
*>solo1b
{8B/L
16c#/L
16d#/JJ
8e/L
8f#/
8g/
8a/J
=53||
16a#/LK
[8.b/J
4b\]
4r
8cc\L
16dd\L
16cc\JJ
=54
8b/L
8g/
8e/
8B/J
12f#/L
12g/
12g#/J
8a/L
8f#/J
=55
8g/L
[8e/J
4e/]}
2r
=56
8r
{24A/LL
24B/
24c#/JJ
8d/L
8e/J
8f/L
8g/
8a/
[8b-/J
=57
8b-\]
24cc\LL
24b-\
24a\JJ
8g/L
8f/J
8e/L
8d/
8c#/
[8bn/J
=58
24b\LL]
24cc\
24b\JJ
8a/L
8g/
8g-/J
8f/L
8A/
8c/
8e/J
=59
8d/L
8A/
8c/
8A/J
8B/L
8a-/
8f/
8f#/J
=60
4g/}
*>solo1aa
4r
8r
{8dd\L
8cc\
8g\J
=61||
8b-/L
8a/J
8r
8a-/
8r
8f/L
8e/
8c/J
=62
4g/
8r
16B-/LL
16d/JJ
8f/L
8g/
8e/
8d/J
=63
8c#/L
8e/
8g/
[8b/J
4b\]
4a/
=64
8b/L
[8e/J
4e/]}
2r
=65
2r
{4cc\
8cc\L
[8cc\J
=66
4cc\]
4r
8b-\L
16cc\L
16b-\J
8g\
8a\J
=67
8g/L
8f/
8e-/
8c/J
4d/
8c/L
[8G/J
=68
4G/]}
4r
2r
==
*-
